Sources/FrostedUI/Resources/Icons.xcassets/trash32.imageset/trash-32.svg

<svg width="32" height="32" viewBox="0 0 32 32" fill="none" xmlns="http://www.w3.org/2000/svg" data-fui-icon="true">
  <path
    d="M16.7363 2C18.8397 2.00024 20.6262 3.53907 20.9385 5.61914L21.1465 7H27.25C27.6642 7 28 7.33579 28 7.75C28 8.16421 27.6642 8.5 27.25 8.5H26.1777L24.3906 26.2266C24.271 28.3417 22.5207 30 20.3975 30H11.6025C9.47928 30 7.729 28.3417 7.60938 26.2266L5.82227 8.5H4.75C4.33579 8.5 4 8.16421 4 7.75C4 7.33579 4.33579 7 4.75 7H10.8535L11.0615 5.61914C11.3738 3.53907 13.1603 2.00024 15.2637 2H16.7363ZM9.10254 26.0762L9.10547 26.1162L9.12891 26.3623C9.30556 27.5771 10.3503 28.5 11.6025 28.5H20.3975C21.733 28.5 22.8324 27.4503 22.8945 26.1162L22.8975 26.0762L24.6709 8.5H7.3291L9.10254 26.0762ZM15.2637 3.5C13.9027 3.50024 12.747 4.49593 12.5449 5.8418L12.3711 7H19.6289L19.4551 5.8418C19.253 4.49593 18.0973 3.50024 16.7363 3.5H15.2637Z"
    fill="currentColor"
  />
</svg>

<svg xmlns="http://www.w3.org/2000/svg" width="32" height="32" fill="none" data-fui-icon="true" viewBox="0 0 32 32"><path fill="currentColor" d="M16.736 2a4.25 4.25 0 0 1 4.203 3.62L21.146 7h6.104a.75.75 0 0 1 0 1.5h-1.072L24.39 26.227A4 4 0 0 1 20.398 30h-8.795a4 4 0 0 1-3.994-3.773L5.822 8.5H4.75a.75.75 0 0 1 0-1.5h6.104l.208-1.38A4.25 4.25 0 0 1 15.264 2zM9.103 26.076l.002.04.024.246a2.5 2.5 0 0 0 2.473 2.138h8.796a2.5 2.5 0 0 0 2.497-2.384l.003-.04L24.67 8.5H7.329zM15.263 3.5a2.75 2.75 0 0 0-2.718 2.342L12.37 7h7.258l-.174-1.158A2.75 2.75 0 0 0 16.736 3.5z"/></svg>
